icon_installer/data/icons/scalable/actions/show-blend-tool-symbolic.svg

<?xml version="1.0" encoding="UTF-8"?>
<svg height="16px" viewBox="0 0 16 16" width="16px" xmlns="http://www.w3.org/2000/svg">
    <g fill="#222222">
        <path d="m 1 1 v 14 h 14 v -14 z m 1 1 h 12 v 12 h -12 z m 0 0"/>
        <path d="m 6 11 h 1 v 1 h -1 z m 1 1 h 1 v 1 h -1 z m -1 -3 h 1 v 1 h -1 z m 1 1 h 1 v 1 h -1 z m -1 -3 h 1 v 1 h -1 z m 1 1 h 1 v 1 h -1 z m -1 -3 h 1 v 1 h -1 z m 1 1 h 1 v 1 h -1 z m -1 -3 h 1 v 1 h -1 z m 1 1 h 1 v 1 h -1 z m -4 -1 h 3 v 10 h -3 z m 0 0"/>
        <path d="m 8 3 h 1 v 10 h -1 z m 2 9 h 1 v 1 h -1 z m 0 -2 h 1 v 1 h -1 z m 0 -2 h 1 v 1 h -1 z m 0 -2 h 1 v 1 h -1 z m 0 -2 h 1 v 1 h -1 z m -1 7 h 1 v 1 h -1 z m 0 -2 h 1 v 1 h -1 z m 0 -2 h 1 v 1 h -1 z m 0 -2 h 1 v 1 h -1 z m 0 -2 h 1 v 1 h -1 z m 0 0" fill-opacity="0.34902"/>
    </g>
</svg>

<svg xmlns="http://www.w3.org/2000/svg" width="16" height="16"><g fill="#222"><path d="M1 1v14h14V1zm1 1h12v12H2zm0 0"/><path d="M6 11h1v1H6zm1 1h1v1H7zM6 9h1v1H6zm1 1h1v1H7zM6 7h1v1H6zm1 1h1v1H7zM6 5h1v1H6zm1 1h1v1H7zM6 3h1v1H6zm1 1h1v1H7zM3 3h3v10H3zm0 0"/><path fill-opacity=".349" d="M8 3h1v10H8zm2 9h1v1h-1zm0-2h1v1h-1zm0-2h1v1h-1zm0-2h1v1h-1zm0-2h1v1h-1zm-1 7h1v1H9zm0-2h1v1H9zm0-2h1v1H9zm0-2h1v1H9zm0-2h1v1H9zm0 0"/></g></svg>
